X:163
T: Von einem stolzen Dirnelein
N: A0201A
O: Europa, Mitteleuropa, Deutschland
N: J Werlin Hs. 1646 S. 234.
R: Romanze, Ballade, Lied
M: 3/2
L: 1/2
K: F
FFF | c2A | B2G | A3
FFF | c2A | B2G | A2
F | FFFF | F2G
A | B2G | F2A | B2G | F2
F | AABB | c2BA | G2F2

